wp-content/themes/wp-rock/assets/public/images/link-decor.svg

<svg width="14" height="14" viewBox="0 0 14 14" fill="none" xmlns="http://www.w3.org/2000/svg">
<g clip-path="url(#clip0_2162_43122)">
<path d="M2.52375 7.13814L1.89798 6.9534L2.66361 6.7084C4.64709 6.07369 6.20634 4.52701 6.85709 2.54874L7.15903 1.63083L7.42557 2.47489C8.06357 4.49522 9.64618 6.07782 11.6665 6.71582L12.4188 6.95338L11.8054 7.13207C9.70668 7.7435 8.05584 9.36892 7.4119 11.4579L7.15901 12.2783L6.87215 11.385C6.2146 9.33711 4.58658 7.74712 2.52375 7.13814Z" stroke="#AB5E34"/>
</g>
<defs>
<clipPath id="clip0_2162_43122">
<rect width="14" height="14" fill="white"/>
</clipPath>
</defs>
</svg>

<svg width="14" height="14" viewBox="0 0 14 14" fill="none" xmlns="http://www.w3.org/2000/svg"><g clip-path="url(#clip0_2162_43122)"><path d="M2.524 7.138l-.626-.185.766-.245a6.5 6.5 0 004.193-4.16l.302-.917.267.844a6.5 6.5 0 004.24 4.24l.753.238-.614.18a6.5 6.5 0 00-4.393 4.325l-.253.82-.287-.893a6.5 6.5 0 00-4.348-4.247z" stroke="#AB5E34"/></g><defs><clipPath id="clip0_2162_43122"><path fill="#fff" d="M0 0h14v14H0z"/></clipPath></defs></svg>
